modules/framework7-icons/icons/briefcase.svg

<?xml version="1.0" encoding="UTF-8"?>
<svg width="50px" height="50px" viewBox="0 0 50 50" version="1.1" xmlns="http://www.w3.org/2000/svg" xmlns:xlink="http://www.w3.org/1999/xlink">
    <!-- Generator: Sketch 40.1 (33804) - http://www.bohemiancoding.com/sketch -->
    <title>briefcase</title>
    <desc>Created with Sketch.</desc>
    <defs></defs>
    <g id="Page-1" stroke="none" stroke-width="1" fill="none" fill-rule="evenodd">
        <g id="briefcase" fill="#000000">
            <path d="M0,15.0053221 C0,12.240959 2.24553095,10 5.00003191,10 L44.9999681,10 C47.7614095,10 50,12.2362844 50,15.0053221 L50,44.9946779 C50,47.759041 47.754469,50 44.9999681,50 L5.00003191,50 C2.23859054,50 0,47.7637156 0,44.9946779 L0,15.0053221 Z M2.06749647,15.0074199 C2.06749647,13.3464677 3.41927701,12 5.06794063,12 L45.0670523,12 C46.7241519,12 48.0674965,13.3455393 48.0674965,15.0074199 L48.0674965,44.9925801 C48.0674965,46.6535323 46.7157159,48 45.0670523,48 L5.06794063,48 C3.41084108,48 2.06749647,46.6544607 2.06749647,44.9925801 L2.06749647,15.0074199 Z" id="Combined-Shape"></path>
            <path d="M21.1260175,26 L2.06749647,26 L2.06749647,28 L21.1260175,28 C21.043753,27.6803801 21,27.3452996 21,27 C21,26.6547004 21.043753,26.3196199 21.1260175,26 Z M28.8739825,26 L48.0674965,26 L48.0674965,28 L28.8739825,28 C28.956247,27.6803801 29,27.3452996 29,27 C29,26.6547004 28.956247,26.3196199 28.8739825,26 Z" id="Combined-Shape"></path>
            <circle id="Oval-55" cx="25" cy="27" r="4"></circle>
            <path d="M16.0385877,9.96998322 C16.0821042,9.68435049 16.1451879,9.36332566 16.2312894,9.01617333 C16.4776454,8.0228926 16.8567646,7.03033616 17.3924775,6.11124466 C18.8990528,3.52650114 21.3222538,2 25,2 C28.6777462,2 31.1009472,3.52650114 32.6075225,6.11124466 C33.1432354,7.03033616 33.5223546,8.0228926 33.7687106,9.01617333 C33.8548121,9.36332566 33.9178958,9.68435049 33.9614123,9.96998322 C33.9865337,10.1348748 33.9992695,10.2465113 34.0032322,10.2956788 L34.0835693,11.2924466 L36.0771048,11.1317724 L35.9967678,10.1350047 C35.9694401,9.7959412 35.8846145,9.23916435 35.7098954,8.53471586 C35.4205611,7.36815087 34.9747005,6.20086159 34.3354269,5.10409708 C32.4848978,1.92925201 29.4223614,0 25,0 C20.5776386,2.22044605e-16 17.5151022,1.92925201 15.6645731,5.10409708 C15.0252995,6.20086159 14.5794389,7.36815087 14.2901046,8.53471586 C14.1153855,9.23916435 14.0305599,9.7959412 14.0032322,10.1350047 L13.9228952,11.1317724 L15.9164307,11.2924466 L15.9967678,10.2956788 C16.0007305,10.2465113 16.0134663,10.1348748 16.0385877,9.96998322 Z" id="Line"></path>
        </g>
    </g>
</svg>

<svg width="50" height="50" viewBox="0 0 50 50" xmlns="http://www.w3.org/2000/svg"><g fill="#000" fill-rule="evenodd"><path d="M0 15.005A5.007 5.007 0 0 1 5 10h40a5 5 0 0 1 5 5.005v29.99A5.007 5.007 0 0 1 45 50H5a5 5 0 0 1-5-5.005v-29.99zm2.067.002a3.01 3.01 0 0 1 3-3.007h40c1.657 0 3 1.346 3 3.007v29.986a3.01 3.01 0 0 1-3 3.007h-40c-1.656 0-3-1.346-3-3.007V15.007z"/><path d="M21.126 26H2.067v2h19.059a4.007 4.007 0 0 1 0-2zm7.748 0h19.193v2H28.874a4.007 4.007 0 0 0 0-2z"/><circle cx="25" cy="27" r="4"/><path d="M16.039 9.97c.043-.286.106-.607.192-.954.247-.993.626-1.986 1.161-2.905C18.9 3.527 21.322 2 25 2c3.678 0 6.1 1.527 7.608 4.111.535.92.914 1.912 1.16 2.905.087.347.15.668.193.954.026.165.038.277.042.326l.08.996 1.994-.16-.08-.997a10.6 10.6 0 0 0-.287-1.6 13.042 13.042 0 0 0-1.375-3.43C32.485 1.928 29.422 0 25 0c-4.422 0-7.485 1.93-9.335 5.104a13.042 13.042 0 0 0-1.375 3.43 10.6 10.6 0 0 0-.287 1.601l-.08.997 1.993.16.08-.996c.005-.05.017-.161.043-.326z"/></g></svg>
